X:1
T:The Quebec Donkey
L:1/8
Q:1/4=110
M:2/4
K:Gmaj
|: z4 | z4 | z4 | z4 |
z4 | z4 | z4 | z4 :|
|:"C"c>d e z |"C" z3 G |"Am" A z/2 A/2 z2 |"Am" A z/2 A/2 z2 |
"C"c>e g z |"C" z3 d |"G" G2"D" F2 |"Em" E2 E2 :|
|:"G"z4 |"G" z3 f |"C" cd d z |"D" ed d z |
"G"z4 |"G" z3 f |"C" c2"D" B2 |"Em" E3 z :|
|:"C"c z"G/B" d z |"Am7" g z"Em/G" e z |"Am7" g z/2 g/2 z2 |"Bm7" a z/2 a/2 z2 |
"C"c z"G7/B" d z |"Am7" g z"G" e z |"Cmaj7" e z"Bm7" d z |"Em" e2 e2 :|
|:
